X: 861
T: Alec Hercher
R: jig
M: 6/8
K: Amajor
E|A>A (3cBA F2 D>F|E>e (3cBA G<BB>c|
(3cBA (3ecA F2 D>F|E>A (3GAB c<A A>g||
2 A>A, (3CDE F2 D>F|E>A (3GAB c<A A2||

